round/svg/hdr_on.svg

<svg xmlns="http://www.w3.org/2000/svg" width="24" height="24"><path fill="none" d="M0 0h24v24H0V0z"/><g fill="currentColor"><path d="M7.25 9c-.41 0-.75.34-.75.75V11h-2V9.75c0-.41-.34-.75-.75-.75S3 9.34 3 9.75v4.5c0 .41.34.75.75.75s.75-.34.75-.75V12.5h2v1.75c0 .41.34.75.75.75s.75-.34.75-.75v-4.5C8 9.34 7.66 9 7.25 9zM21 11.5v-1c0-.83-.67-1.5-1.5-1.5H17c-.55 0-1 .45-1 1v4.25c0 .41.34.75.75.75s.75-.34.75-.75V13h1.1l.72 1.59a.693.693 0 0 0 1.27-.55l-.49-1.14c.5-.3.9-.8.9-1.4zm-3.5 0v-1h2v1h-2zM13 9h-3c-.28 0-.5.22-.5.5v5c0 .28.22.5.5.5h3c.82 0 1.5-.68 1.5-1.5v-3c0-.82-.68-1.5-1.5-1.5zm0 4.5h-2v-3h2v3z"/></g></svg>

<?xml version="1.0" encoding="utf-8"?>
<!-- Generator: Adobe Illustrator 19.1.0, SVG Export Plug-In . SVG Version: 6.00 Build 0)  -->
<svg version="1.1" xmlns="http://www.w3.org/2000/svg" xmlns:xlink="http://www.w3.org/1999/xlink" x="0px" y="0px" width="24px"
	 height="24px" viewBox="0 0 24 24" enable-background="new 0 0 24 24" xml:space="preserve">
<g id="Bounding_Boxes">
	<g id="ui_x5F_spec_x5F_header_copy_3">
	</g>
	<path fill="none" d="M0,0h24v24H0V0z"/>
</g>
<g id="Rounded" fill="currentColor">
	<g id="ui_x5F_spec_x5F_header_copy_7">
	</g>
	<g>
		<path d="M7.25,9C6.84,9,6.5,9.34,6.5,9.75V11h-2V9.75C4.5,9.34,4.16,9,3.75,9S3,9.34,3,9.75v4.5C3,14.66,3.34,15,3.75,15
			s0.75-0.34,0.75-0.75V12.5h2v1.75C6.5,14.66,6.84,15,7.25,15S8,14.66,8,14.25v-4.5C8,9.34,7.66,9,7.25,9z"/>
		<path d="M21,11.5v-1C21,9.67,20.33,9,19.5,9H17c-0.55,0-1,0.45-1,1v4.25c0,0.41,0.34,0.75,0.75,0.75s0.75-0.34,0.75-0.75V13h1.1
			l0.72,1.59c0.11,0.25,0.36,0.41,0.63,0.41h0c0.5,0,0.83-0.51,0.64-0.96L20.1,12.9C20.6,12.6,21,12.1,21,11.5z M17.5,11.5v-1h2v1
			H17.5z"/>
		<path d="M13,9h-3C9.72,9,9.5,9.22,9.5,9.5v5c0,0.28,0.22,0.5,0.5,0.5h3c0.82,0,1.5-0.68,1.5-1.5v-3C14.5,9.68,13.82,9,13,9z
			 M13,13.5h-2v-3h2V13.5z"/>
	</g>
</g>
</svg>
